X:1
T:Hommage à Rameau
T:Hommage à Rameau
T:Claude Debussy
T:Images
C:Claude Debussy
%%score { ( 1 3 5 ) | ( 2 4 6 ) }
L:1/8
Q:1/4=70
M:3/2
K:B
V:1 treble nm="Piano" snm="Pno."
V:3 treble 
V:5 treble 
V:2 bass 
V:4 bass 
V:6 bass 
V:1
"^Lent et grave""^(dans le style d'une Sarabande mais sans rigueur.)"!pp! (D2 G2 F4- FD (3CDF | %1
 G7/4B/4 A2 c4 A4) | z2!<(! (GB (3GAF D2 F2 A2-!<)! |!>(! A2 (3cAB (3GAF D2 C2 A,2)!>)! | %4
 z2!p! (3(.g.g.b (bg) (3.g.g.b (bg) !tenuto!g2) | z2!p! (3(.d.d.f (fd) (3.d.d.f (fd) d2) | %6
!p! z2 (3(dcd G2 (3GFG[K:bass]!<(! C2- (3CB,C | %7
 D2 (3DCD[K:treble] .[G,A,^^C^EA]2!<)! .[D^^FAd]2!p!!>(! !tenuto![DFAd]4- | [DFAd]6)!>)! z2 z4 | %9
[K:bass]!pp!!<(! (A,2 D2 C4- CA, (3G,A,C!<)! || %10
[M:4/2][K:treble]!<(! (D7/4F/4!<)! E2)!<(! (G7/4-B/4!<)! A2)!>(! c4 A4-)!>)! || %11
[M:3/2]!p! (A2 AB (3GAF!<(! D2 F2!<)! A2-) | (A2 (3cAB (3GAF!>(! D2 C2- E2)!>)! | %13
[K:bass]!pp! z2[K:treble]!p! (b2!>(! =a6)!>)! a2- | a2!>(! (f2!>)! =d6)[K:bass][K:treble] (d2- || %15
[M:1/2]!>(! d2 B2)!>)! ||[M:3/2]!p! ([=G,=G]6!<(! [^G,^G]2 [Cc]2!<)! [Dd]2) | %17
!p! ([=G,=G]6!<(! [^G,^G]2 [Cc]2!<)! [Dd]2) |"_cresc." [Dd][Ee] [Ece]4 ([df][eg]) [eg]2 ([ce]g) | %19
!p!"_très soutenu" (.[=Ace=a]2 !tenuto![Acea]4 !tenuto![Aa]2 !tenuto![Gg]2 ([Ff][Gg]) | %20
 (g=a) [=Acea]4) (!tenuto![Aa]2 !tenuto![Gg]2 ([Ff][Gg]) | %21
!<(! [G^Bdg][=B=dfb]!<)! [Bdfb]4)!<(! ([Bdfb][c^egc'] [cegc']2 [=egbe'][c^egc'] | %22
 [c^egc'][B=dfb]!<)! [Bdfb]4)!<(! ([Bdfb][cegc'] [cegc']2 [=ee'][ff'])!<)! |!f! [g^bd'g']12- | %24
!p! [gbd'g']12- | [gbd'g']2!p!!>(! (G2 !tenuto!F4- FD (3CDF!>)! | %26
 G7/4B/4 A2!>(! !tenuto!.[CEGc]4 !tenuto!.[A,CDFA]4)!>)! | %27
!pp! z2 (.A.B (3GAF !tenuto!.D2 !tenuto!.F2 !tenuto!.A2) |[K:bass] z2 (D4!>(! A,4 D,2-)!>)! | %29
 D,8 z4 | %30
[K:treble]!pp![Q:1/4=64]"^Commencer un peu au dessous du mouvt" !tenuto![^B,FA]6!<(! [G,B,^E]2 [=A,CF]2-!<)!!>(! [A,CF]>[C^^F^B]!>)! | %31
!pp! [^^CGA]12 | !tenuto![CF=A]12 |!<(! ([^eg]2- [eg]>[df] [ce]2 [df]4!<)! [eg]2) | %34
!pp! [^B^^c^eg^b]6!<(! [^^FA=e^^f]2 [G=B^eg]2- [GBeg]>[^^cf^^c'] | [^B^^cg^b]4 x8 | %36
!>(! ([gg']2 [ff'][dd'] [cfgc']2 [=B=d^e=b]2 !tenuto!.[GBg]2 !tenuto!.[F=A^Bf]2)!>)! | %37
[Q:1/4=70]"^au Mouvt"!p! (!tenuto!.[=A,B,CF=B]2!<(! .[A,B,CFB]!<)![I:staff +1].[DGBd])!p![I:staff -1] [A,B,CFB]8- | %38
!p! [=A,B,CFB]2!<(! ([A,B,CFB][I:staff +1][DGBd])[I:staff -1] ([A,B,CFB-]2 [DBd]2 [GBdg]2!<)!!>(! [D^EBd]2)!>)! | %39
!p! (!tenuto!.[=A,B,CFB]2 .[A,B,CFB][I:staff +1].[DGBd])[I:staff -1] [A,B,CFB]8- | %40
 [=A,B,CFB]2"_cresc." ([F,F]2 [B,B]2 [Ff][Cc] [B,B]2) [Ff]2 || %41
[M:2/2] ([Bb]2 [ff'][cc'] [Bb]2 [cc']2) || %42
[M:3/2][Q:1/4=76]"^En animant"!p! ([G=ceg]4 [Fc=df]6 [Gceg][=Adf=a]) | %43
 ([Begb]"_cresc."[=A=df=a] [G=ceg]2- [Gceg][FBdf][Gceg][Adfa] [Begb][cfa=c']- (3[cfac'][dgb=d'][eac'e']) | %44
!f! ([g=c'e'g'] [fb=d'f']2 .[e=ac'e']) ([=dgbd'] [=cfac']2 .[Begb])!>(! ([=Adfa] [Gceg]2 .[FBdf])!>)! | %45
!p!"_dim." ([G=ceg] [FB=df]2 [Gceg] [Gceg] [FBdf]2 [Gceg]- [Gceg] [FBdf]2 [Gceg] | %46
!p! [G^B^eg] [FA^df]2 [GBeg]- [GBeg] [FAdf]2 [GBeg] [GBeg]!>(! [FAdf]2!>)! [GBeg]) | %47
!p! ([=Ac=f=a]4 [=GBd=g]6 [Acfa][Bdgb] | %48
!<(! [c=f=ac'][Bd=gb] [=Acfa]2- [Acfa][=GBdg][Acfa][Bdgb] [cfac'] [dgbd']2 [fac'=f']) | %49
 ([=gbd'=g'] [=f=ac'=f']2) [dgbd'] ([cfac'] [Bdgb]2) [cfac'] ([dgbd'] [fac'f']2) ([gbd'g']!<)! || %50
[K:C][Q:1/4=70]"^a Tempo 1°" .[abd'f'a']2)!ff! (!tenuto!.[ABdfa]4 !tenuto!.[E^A^ce]2!<(! !tenuto!.[FBdf]2- [FBdf]>[B_e^fb]!<)! | %51
 [Ad=fa]12) | %52
!ff!{x} .a'2 !tenuto!.[ABdfa]4 !tenuto!.[E^A^ce]2!<(! !tenuto!.[FBdf]2- [FBdf]>[B=c^db]!<)! | %53
 !tenuto!.[Bceb]12 |!p! !tenuto![Bceb]12 |!p! !tenuto![Bceb]12[Q:1/4=66]"^Rit." || %56
[K:B][Q:1/4=70]"^au Mouvt"!pp! (!tenuto!D2 !tenuto!G2 !tenuto!F4- FD (3CDF | %57
!<(! G>B A2 c4!<)!!>(! A4)!>)! |!pp! z2 (AB (3GA^F!<(! D2 F2 A2)!<)! | %59
!pp! z2 (3(cAB (3GA^F!>(! D2 C2 A,2)!>)! | %60
!pp! z2!<(! (3(ggb (bg) (3gg!<)!b!>(! (bg) !tenuto!g2)!>)! | %61
!pp! z2!<(! (3(ddf (fd) (3dd!<)!f!>(! (fd) !tenuto!d2)!>)! | %62
!p! z2 (3(dcd G2 (3GFG[K:bass] C2- (3CB,C | %63
!<(! D2- (3DC!<)!D[K:treble]!p!!>(! !tenuto!.[G,A,^^C^EA]2[Q:1/4=68]"^Poco rit." !tenuto!.[DG^Bd]2!>)! !tenuto!.[D^^FAd]4-) | %64
 [DFAd]4 z4[K:bass]!p!!>(! (D,2!>)! G,2) | %65
[Q:1/4=66]"^Un peu plus lent"!pp! (!tenuto![^E,G,C^E]8-[K:treble][K:bass] [E,G,CE]2 [D,F,B,D]2 | %66
[K:treble] !tenuto![G,B,=EG]8 [A,^^C^EA]4) | %67
[K:bass]!pp! !tenuto![^E,G,^C^E]8-[K:treble][K:bass]!<(! [E,G,CE]2 [G,B,=EG]2!<)! | %68
[K:treble]!p! z2 (!tenuto![dd']2 !tenuto![gg']2 !tenuto![d'd'']!tenuto![aa'] !tenuto![gg']2) !tenuto![A,DFA]2 | %69
!p! z2 (!tenuto![Dd]2 !tenuto![Gg]2 !tenuto![dd']!tenuto![Aa] !tenuto![Gg]2) [A,DFA]2 | %70
!p!!>(! ([CD=Ac]8 [F^Ad]4)!>)! | %71
[Q:1/4=60]"^Retenu"!pp! z2 (!tenuto![dd']2"_m.g." !tenuto![gg']2 !tenuto![d'd'']!tenuto![aa'] !tenuto![gg']2) !tenuto![^EAc^e]2 | %72
"_m.d." .[DGBd]2 .[CFAc]2 !tenuto![B,^EGB]4 !tenuto![A,DFA]4 | %73
[Q:1/4=56]"^Plus retenu"!pp! z2 (!tenuto![Dd]2 !tenuto![Gg]2 !tenuto![dd']!tenuto![Aa] !tenuto![Gg]2) z2 | %74
 z4!ped!!ppp!!ped! !tenuto![d'g'b'd'']8- | [d'g'b'd'']12!ped-up! |] %76
V:2
 (D,2 G,2 F,4- F,D, (3C,D,F, | G,7/4B,/4 A,2 C4 A,4) | z2 (A,B, (3G,A,F, D,2 F,2 A,2- | %3
 A,2 (3CA,B, (3G,A,F, D,2 C,2 A,,2) | %4
!pp! z2 (.[D,G,B,D]2 .[E,=A,CE]2 .[F,B,DF]2 .[E,A,CE]2 .[D,G,B,D]2) | %5
 z2 (.[D,G,B,D]2 .[E,=A,CE]2 .[F,B,DF]2 .[E,A,CE]2 .[D,G,B,D]2) | z2 [F,^A,]2 [B,,=A,]2 E,4 D,2 | %7
 [C,,C,]2 [B,,,B,,]2 [A,,,A,,]2 [D,,,D,,]2- [D,A,]4- | [D,A,]6 z2 z4 | %9
 A,,2 D,2 C,4- C,A,, (3G,,A,,C, ||[M:4/2] (D,7/4F,/4 E,2) (G,7/4-B,/4 A,2) C4 A,4 || %11
[M:3/2] (A,2 A,B, (3G,A,F, D,2 F,2 A,2-) | (A,2 (3CA,B, (3G,A,F, D,2 C,2- E,2) | %13
 z2[K:treble] (B2 =A6)[K:bass][K:treble] A2- | A2 (F2[K:bass] =D6) D2- ||[M:1/2] D2 B,2 || %16
[M:3/2] ([^A,,,^A,,]4 [C,,C,]4 [E,,E,]2 [D,,D,]2) | ([A,,,A,,]4 [C,,C,]4 [E,,E,]2 [D,,D,]2) | %18
 z2 (FG) G2 ([DF][EG]) [EG]2 [CE]2 | %19
 !arpeggio![E,=A,CE]2 [E,A,CE]4 ([CE][=CD]) ([CD][B,=D]) (3([^A,^C][B,D][^B,^D]) | %20
 ([^B,D][CE]) [CE]4 ([CE][=C^D]) ([CD][B,=D]) (3([^A,^C][B,D][^B,^D]) | %21
 [^B,D][=DF] [DF]4 [DF][^EG] [EG]2[K:treble] [GB][^EG] | %22
[K:bass] [=D^E^G][DF] [DF]4 [DF][^EG] [EG]2[K:treble] =EF | %23
[K:bass] !tenuto!D2 !tenuto!G2 !tenuto!F4 !tenuto!D4- | D2 (.G2 !tenuto!.F4 !tenuto!.D4-) | %25
 D2 z2 z4 z2 ([=A,,,=A,,]2 |!8vb(! [E,,,E,,]2 [C,,,C,,]2 [A,,,,A,,,]4 [D,,,D,,]4)!8vb)! | %27
 z2 .A,.B, (3G,A,F, D,2 F,2 A,2 | z2 (D,4 A,,4 D,,2-) | D,,8 z2 [G,,,G,,]2- | %30
 [D,G,]6 =D,2 ^D,2- D,>[E,=A,] | [G,,^E,^A,]12 | !tenuto![G,,-D,F,=A,]12 | %33
 ([=A,C]4 [B,D]4 [C^E]4) | [G,,,G,,]4 [G,,,G,,]8- | [^E,A,^^CG]8[K:treble] !tenuto!G4- | %36
 [=A^B]4 [FG]2 [=D^E]2[K:bass] =A,4 | %37
 ([B,,,B,,]6[K:treble][K:bass] [F,,,F,,]2 [B,,,B,,]2 [F,,F,][C,,C,]) | %38
 ([B,,,B,,]8[K:treble][K:bass] [G,,,G,,]2 [C,,C,]2) | %39
 ([B,,,B,,]6[K:treble][K:bass] [F,,,F,,]2 [B,,,B,,]2 [F,,F,][C,,C,]) | %40
 ([B,,,B,,]4 [=A,,,=A,,]4 [=G,,,=G,,]4) ||[M:2/2] ([G,=DF]4 ([B,D^E]4) || %42
[M:3/2] z2) ([=A,,=A,]2 [=D,=D]2 [A,=A][E,E] [D,D]2) .[A,,A,]2 | %43
 z2 ([=A,,=A,]2 [=D,=D]2 [A,=A][E,E] [D,D]2) [A,,A,]2 | %44
 z2 ([=A,,=A,]2 [=D,=D]2 [A,=A][E,E] [D,D]2) [A,,A,]2 | %45
 z2 ([=A,,=A,]2 [=D,=D]2 [A,=A][E,E] [D,D]2) .[A,,A,]2 | %46
 z2"_en dehors" (!tenuto!.D,2 !tenuto!.G,2 !tenuto!.D!tenuto!.A, !tenuto!.G,2) !tenuto!.G,,2 | %47
 z2 (.[B,,B,]2 .[=F,=F]2[K:treble] .[Cc].[=G,=G] .[=F,=F]2[K:bass] .[B,,B,]2) | %48
 z2 (.[B,,B,]2 .[=F,=F]2[K:treble] .[Cc].[=G,=G] .[=F,=F]2[K:bass] .[B,,B,]2) | %49
 z2 (.[B,,B,]2 .[=F,=F]2[K:treble] .[Cc].[=G,=G] .[=F,=F]2[K:bass] .[B,,B,]2) || %50
[K:C] z2 !tenuto!.[A,B,DF]4 !tenuto!.[^G,^A,^C]2 !tenuto!.[=G,B,D]2- [G,B,D]>[^F,=C_E] | %51
 [=F,B,D]12[K:treble]!8va(! |[K:bass] z2 [ABdf]4 [^G^A^c]2 [=GBd]2- [GBd]>[F=c^d]!8va)! | %53
 [^F,CE]12 | [G,CEG]8 E,[I:staff -1]G,CD |[I:staff +1] [^F,CE]12 ||[K:B] [B,,F,]12 | [B,,^E,]12 | %58
 ([G,B,=D]2 [=G,A,C]2 [^F,^G,^B,]8) | ([G,=B,=D]2 [=G,A,C]2 [^F,^G,^B,]4) ^^F,4 | %60
 z2 (.[D,G,B,D]2 .[E,=A,CE]2 .[F,B,DF]2 .[E,A,CE]2 .[D,G,B,D]2) | %61
 z2 (.[D,G,B,D]2 .[E,=A,CE]2 .[F,B,DF]2 .[E,A,CE]2 .[D,G,B,D]2) | z2 ([F,^A,]2 [B,,=A,]2 E,4 D,2 | %63
 [C,,C,]2 [B,,,B,,]2 [A,,,A,,]2 [G,,,D,,G,,]2 [D,,,A,,,D,,]4-) | [D,,,A,,,D,,]4 z4 (D,,2 G,,2) | %65
 z4 !tenuto!G,4 [C,,G,,C,]2 !tenuto!B,,2 | !tenuto!E,2 !tenuto!B,!tenuto!F, !tenuto!E,4 z4 | %67
 z4 !tenuto!G,4 [C,,G,,C,]2 E,2 | (!tenuto![^E,,^B,,G,]8-!>(! [E,,B,,G,]2 !tenuto![G,,D,F,]2)!>)! | %69
 (!tenuto![^E,,^B,,G,]8-!>(! [E,,B,,G,]2 [G,,D,F,]2)!>)! | ([F,,C,=A,]8 [D,,^A,,F,]4) | %71
 [G,,,G,,]12- | [G,,,G,,]12 | [G,,,G,,]12 |!ppp! [G,,,D,,G,,]12- | [G,,,D,,G,,]12 |] %76
V:3
 x12 | x12 | x12 | x12 | x2 [GB]2 [=Ac]2 [Bd]2 [Ac]2 [GB]2 | x2 [GB]2 [=Ac]2 [Bd]2 [Ac]2 [GB]2 | %6
 x2 [EG]2 D2 [=A,C]2[K:bass] [F,G,]4 | [E,G,]4[K:treble] x8 | x12 |[K:bass] x12 || %10
[M:4/2][K:treble] x4 (E4 [EG]4) [DF]4 ||[M:3/2] [CE]6 [B,D]2 [A,C]2 [DF]2 | %12
 [CE]6 [B,D]2 A,2 [=A,C]2 |[K:bass] !tenuto!=A,,8[K:treble] x4 | %14
 [eg][=df] (3([ce][Bd][=Ac]) [Ac][=GB] [GB]4[K:bass][K:treble] (3[Ac][FA][Ac] || %15
[M:1/2] [=Ac][=GB] (3[FA][EG][=DF] ||[M:3/2] ([=DF][CE]) [CE]4 (3[^DF][CE][DF] [GB]2 [^^FA]2 | %17
 ([=DF][CE]) [CE]4 (3[^DF][CE][DF] [GB]2 [^^FA]2 | [Gc]2 x4 c4 G2 | %19
 x6 ([ce][=cd]) ([cd][B=d]) (3[^A^c][Bd][^B^d] | %20
 [G^Bd][=Ace] x4 ([ce][=cd]) ([cd][B=d]) (3[^A^c][Bd][^B^d] | x12 | x10 [gb]2 | x12 | %24
 z2 (.[gg']2 !tenuto!.[ff']4 !tenuto!.[d-d']4) | d2 x10 | [G,B,E]2 [^A,EG]2 x8 | %27
 x2 [CD]4 [CD]4 [CD]2 |[K:bass] x2 (3(CA,B, (3G,A,F, D,2 C,2 A,,2) | !tenuto!G,,4 !tenuto!G,,4 x4 | %30
[K:treble] x12 | x8 ^e4- | (^e2- e>[Bd] [=Ac]2 [Bd]4 [ce]2) | =A8 x4 | x12 | %35
 x8!mf! !tenuto![gg']4- | [=a^b]4 x8 | x12 | x12 | x12 | z4 [C=G]4 [=DG]4 || %41
[M:2/2] [=df]4 [d^e]4 ||[M:3/2] x12 | x12 | x12 | x12 | x12 | x12 | x12 | x12 ||[K:C] x12 | x12 | %52
 x12 | x12 | x12 | x12 ||[K:B] [=A,D]12 | [G,=D]12 | =F2 E2 D8 | =F2 E2 D8 | %60
 x2 [GB]2 [=Ac]2 [Bd]2 [Ac]2 [GB]2 | x2 [GB]2 [=Ac]2 [Bd]2 [Ac]2 [GB]2 | %62
 x2 [EG]2 D2 [=A,C]2[K:bass] [F,G,]4 | [E,G,]4[K:treble] x8 | x8[K:bass] x4 | %65
 z4[K:treble] !tenuto![Gg]4[K:bass] x4 |[K:treble] x12 | %67
[K:bass] z4[K:treble] !tenuto![Gg]4[K:bass] x4 |[K:treble] !tenuto![^B,^EG^B]8- [B,EGB]2 x2 | %69
 !tenuto![^B,^EG^B]8- [B,EGB]2 x2 | !tenuto!D2 !tenuto!G2 !tenuto!F4 !tenuto!D2 !tenuto!C2 | %71
 !tenuto![GBdg]4 !tenuto![FBdf]4- [FBdf]2 x2 | x12 | [G,C^EG]4 x8 | x4 [GBdg]8- | [GBdg]12 |] %76
V:4
 x12 | x12 | x12 | x12 | G,,,12 | G,,,12 | G,,,2 x4 =A,,2 E,,2 D,,2 | x8 [D,,,D,,]4- | %8
 [D,,,D,,]6 x2 z4 | x12 ||[M:4/2] x4 (E,4 [E,G,]4) [D,F,]4 || %11
[M:3/2] [C,E,]6 [B,,D,]2 [A,,C,]2 [D,F,]2 | x6 [B,,D,]2 A,,2 [=A,,C,]2 | %13
 [=D,,,=D,,]8[K:treble][K:bass] !tenuto![=A,,=A,]4[K:treble] | %14
 [EG][=DF] (3[CE][B,D][=A,C][K:bass] [=A,C][=G,B,] [G,B,]4 (3([A,C][F,A,][A,C] || %15
[M:1/2] [=A,C][=G,B,] (3[F,A,][E,G,][=D,F,]) ||[M:3/2] x12 | x12 | x2 [G,C]4 C4 x2 | %19
 x6 [E,=A,]4 [E,=A,]2 | [E,=A,]2 [E,A,]4 [E,A,]4 [E,=A,]2 | z4 [=A,,,=A,,]8-[K:treble] | %22
[K:bass] =A,2 [E,A,]4 [E,A,]2 [A,=D]2[K:treble] [=DGB]2 |[K:bass]({G,,,G,,)} [G,,,G,,D,G,^B,]12- | %24
 [G,,,G,,D,G,B,]12- | [D,G,B,]2 x10 |!8vb(! x12!8vb)! | x2 [G,,D,]4 [G,,D,]4 [G,,D,]2 | %28
 x2 (3(C,A,,B,, (3G,,A,,F,, D,,2 C,,2 A,,,2) | !tenuto!G,,,4 !tenuto!G,,,4 z4 | [G,,,G,,]8 G,,4- | %31
 z4 G,,,8 | z4 z4 G,,,4- | [G,,,-G,,-F,]12 | %34
 [^E,G,A,^^C^E]6 [^C,^^F,A,=E]2 [=D,G,B,^E]2- [D,G,B,E]>[=E,A,^^C^^F] | %35
 [G,,,G,,]4 [G,,,G,,]8[K:treble] | G2 FD C2 =B,2[K:bass] !tenuto!.[G,B,]2 !tenuto!.[F,^B,]2 | %37
 x3[K:treble] x[K:bass] x8 | x3[K:treble] x5[K:bass] x4 | x3[K:treble] x[K:bass] x8 | x12 || %41
[M:2/2]{/[E,,,E,,]} [E,,,E,,]4{/[C,,,C,,]} [C,,,C,,]4 ||[M:3/2] [=D,,,=D,,]12 | [=D,,,=D,,]12 | %44
 [=D,,,=D,,]12 | [=D,,,=D,,]12 | G,,,12 | !tenuto![C,,,C,,]12[K:treble][K:bass] | %48
 !tenuto![C,,,C,,]12[K:treble][K:bass] | !tenuto![C,,,C,,]12[K:treble][K:bass] || %50
[K:C] [G,,,G,,]12- | [G,,,G,,]12[K:treble]!8va(! |[K:bass] !tenuto!G,,12!8va)! | %53
 z4"^dim." (!tenuto!D,,,D,,A,,D, (6:4:6^F,[I:staff -1]A,CDE^F | %54
[I:staff +1] z4) !tenuto!C,,,C,,G,,C, x4 | %55
 z4 !tenuto!D,,,D,,A,,D,- (6:4:6D,^F,[I:staff -1]A,B,CD || %56
[K:B][I:staff +1] (.D,,2 .D,,2 z2 .D,,2 z2 .D,,2) | (.D,,2 .D,,2 z2 .D,,2 z2 .D,,2) | %58
 x4 z2 (D,2 G,,2 D,,2) | x8 !tenuto![D,,A,,]4 | !tenuto!G,,,8 x4 | G,,,12 | %62
 G,,,2 x4 =A,,2 E,,2 D,,2 | x12 | x12 | (!tenuto![C,,G,,C,]8- x2 [B,,,F,,]2 | %66
 [E,,B,,]8 [A,,,^E,,A,,]4) | !tenuto![C,,G,,C,]8- x2 [E,,B,,]2 | x12 | x12 | x12 | [G,B,D]4 x8 | %72
 x12 | x4 [F,B,DF]4- [F,B,DF]2"^m.d." [^E,A,C^E]2 | [D,G,B,D]12- | [D,G,B,D]12 |] %76
V:5
 x12 | x12 | x12 | x12 | x12 | x12 | x8[K:bass] x4 | x4[K:treble] x8 | x12 |[K:bass] x12 || %10
[M:4/2][K:treble] x6 G2- x8 ||[M:3/2] x12 | x12 | %13
[K:bass] x2[K:treble] (3[gb][f=a][eg] ([eg][=df]) [df]4 (3[eg][ce][eg] | %14
 x8[K:bass] !tenuto!=D,4[K:treble] ||[M:1/2] x4 ||[M:3/2] x12 | x12 | x12 | x12 | x12 | x12 | x12 | %23
 x12 | x12 | z2 x8 [E,=A,]2 | x12 | x12 |[K:bass] x12 | x12 |[K:treble] x12 | x12 | x12 | x12 | %34
 x12 | x12 | x12 | x12 | x12 | x12 | x12 ||[M:2/2] x8 ||[M:3/2] x12 | x12 | x12 | x12 | x12 | x12 | %48
 x12 | x12 ||[K:C] x12 | x12 | x12 | x12 | x12 | x12 ||[K:B] x12 | x12 | x12 | x12 | x12 | x12 | %62
 x8[K:bass] x4 | x4[K:treble] x8 | x8[K:bass] x4 | x4[K:treble] x4[K:bass] x4 |[K:treble] x12 | %67
[K:bass] x4[K:treble] x4[K:bass] x4 |[K:treble] x12 | x12 | x12 | x12 | x12 | x12 | x12 | x12 |] %76
V:6
 x12 | x12 | x12 | x12 | x12 | x12 | x12 | x12 | x12 | x12 ||[M:4/2] x6 G,2- x8 ||[M:3/2] x12 | %12
 [C,E,]6 x6 | x2[K:treble] (3[GB][F=A][EG] ([EG][=DF]) [DF]4[K:bass][K:treble] (3[EG][CE][EG] | %14
 x4[K:bass] x4 !tenuto![=G,,,=G,,]4 ||[M:1/2] x4 ||[M:3/2] x12 | x12 | [C,,C,]12 | %19
 !tenuto![=A,,,=A,,]12 | z4 [=A,,,=A,,]8 | [E,=A,]2 [E,A,]4 [E,A,]2 [A,=D]2[K:treble] =D2 | %22
[K:bass] [=A,,,=A,,]4 [A,,,A,,]8[K:treble] |[K:bass] x12 | x12 | [G,,,G,,]2 x10 |!8vb(! x12!8vb)! | %27
 !tenuto!G,,,12 | !tenuto!G,,,4 x8 | x12 | x12 | x12 | x12 | x12 | x12 | x8[K:treble] G4 | %36
 x8[K:bass] x4 | x3[K:treble] x[K:bass] x8 | x3[K:treble] x5[K:bass] x4 | %39
 x3[K:treble] x[K:bass] x8 | x12 ||[M:2/2] x8 ||[M:3/2] x12 | x12 | x12 | x12 | x12 | %47
 x6[K:treble] x4[K:bass] x2 | x6[K:treble] x4[K:bass] x2 | x6[K:treble] x4[K:bass] x2 ||[K:C] x12 | %51
 z4!mf!!<(! (!tenuto!G,,,G,,D,G,[I:staff -1]B,/D/F/A/[K:treble][I:staff +1]B/4d/4f/4a/4[I:staff -1](7:4:7b/4d'/4f'/4a'/4!8va(!b'/4d''/4f''/4)!<)! | %52
[I:staff +1][K:bass] x12!8va)! | x4 D,,,4 x4 | x12 | x12 ||[K:B] x12 | x12 | x12 | x12 | x12 | %61
 x12 | x12 | x12 | x12 | x12 | x12 | x12 | x12 | x12 | x12 | x12 | x12 | x12 | x12 | x12 |] %76

